client/public/assets/icons/action/new_custom66.svg

<?xml version="1.0"?><svg xmlns="http://www.w3.org/2000/svg" width="52" height="52" viewBox="0 0 52 52"><g fill="#fff"><path d="m48.6 30.3l-11.6-11.7c-1.8-1.8-4.8-1.8-6.6 0l-11.8 11.7c-1.8 1.8-1.8 4.8 0 6.6l11.7 11.7c1.8 1.8 4.8 1.8 6.6 0l11.7-11.7c1.9-1.7 1.9-4.8 0-6.6z m-22 5.3c-1.1 1.1-2.9 1.1-3.9 0-1.1-1.1-1.1-2.9 0-3.9 1.1-1.1 2.9-1.1 3.9 0s1 2.8 0 3.9z m9 9.1c-1.1 1.1-2.9 1.1-3.9 0-1.1-1.1-1.1-2.9 0-3.9 1.1-1.1 2.9-1.1 3.9 0 1 1 1 2.8 0 3.9z m0-18.1c-1.1 1.1-2.9 1.1-3.9 0-1.1-1.1-1.1-2.9 0-3.9 1.1-1.1 2.9-1.1 3.9 0 1 1 1 2.8 0 3.9z m9 9c-1.1 1.1-2.9 1.1-3.9 0-1.1-1.1-1.1-2.9 0-3.9 1.1-1.1 2.9-1.1 3.9 0 1.2 1.1 1.2 2.8 0 3.9z m-16.2-22.8v-6c0-2.6-2.2-4.8-4.8-4.8h-16.8c-2.6 0-4.8 2.2-4.8 4.8v16.8c0 2.6 2.2 4.8 4.8 4.8h6c0.5 0 1-0.2 1.3-0.6 0.2-0.3 0.6-0.6 0.9-1l11.8-11.8c0.3-0.3 0.6-0.6 1-0.9 0.4-0.3 0.6-0.8 0.6-1.3z m-19.6 11.6c-1.5 0-2.8-1.3-2.8-2.8s1.3-2.8 2.8-2.8 2.8 1.3 2.8 2.8-1.3 2.8-2.8 2.8z m6.4-6.4c-1.5 0-2.8-1.3-2.8-2.8s1.3-2.8 2.8-2.8 2.8 1.3 2.8 2.8-1.3 2.8-2.8 2.8z m6.4-6.4c-1.5 0-2.8-1.3-2.8-2.8s1.3-2.8 2.8-2.8c1.5 0 2.8 1.3 2.8 2.8s-1.3 2.8-2.8 2.8z"></path></g></svg>

<?xml version="1.0" encoding="utf-8"?>
<!-- Generator: Adobe Illustrator 18.1.1, SVG Export Plug-In . SVG Version: 6.00 Build 0)  -->
<svg version="1.1" id="Layer_1" xmlns="http://www.w3.org/2000/svg" xmlns:xlink="http://www.w3.org/1999/xlink" x="0px" y="0px"
	 width="52px" height="52px" viewBox="0 0 52 52" enable-background="new 0 0 52 52" xml:space="preserve">
<g>
	<path fill="#FFFFFF" d="M48.6,30.3L37,18.6c-1.8-1.8-4.8-1.8-6.6,0L18.6,30.3c-1.8,1.8-1.8,4.8,0,6.6l11.7,11.7
		c1.8,1.8,4.8,1.8,6.6,0l11.7-11.7C50.5,35.2,50.5,32.1,48.6,30.3z M26.6,35.6c-1.1,1.1-2.9,1.1-3.9,0c-1.1-1.1-1.1-2.9,0-3.9
		c1.1-1.1,2.9-1.1,3.9,0C27.6,32.8,27.6,34.5,26.6,35.6z M35.6,44.7c-1.1,1.1-2.9,1.1-3.9,0c-1.1-1.1-1.1-2.9,0-3.9
		c1.1-1.1,2.9-1.1,3.9,0C36.6,41.8,36.6,43.6,35.6,44.7z M35.6,26.6c-1.1,1.1-2.9,1.1-3.9,0c-1.1-1.1-1.1-2.9,0-3.9
		c1.1-1.1,2.9-1.1,3.9,0C36.6,23.7,36.6,25.5,35.6,26.6z M44.6,35.6c-1.1,1.1-2.9,1.1-3.9,0c-1.1-1.1-1.1-2.9,0-3.9
		c1.1-1.1,2.9-1.1,3.9,0C45.8,32.8,45.8,34.5,44.6,35.6z"/>
	<path fill="#FFFFFF" d="M28.4,12.8v-6c0-2.6-2.2-4.8-4.8-4.8H6.8C4.2,2,2,4.2,2,6.8v16.8c0,2.6,2.2,4.8,4.8,4.8h6
		c0.5,0,1-0.2,1.3-0.6c0.2-0.3,0.6-0.6,0.9-1L26.8,15c0.3-0.3,0.6-0.6,1-0.9C28.2,13.8,28.4,13.3,28.4,12.8z M8.8,24.4
		c-1.5,0-2.8-1.3-2.8-2.8s1.3-2.8,2.8-2.8s2.8,1.3,2.8,2.8S10.3,24.4,8.8,24.4z M15.2,18c-1.5,0-2.8-1.3-2.8-2.8s1.3-2.8,2.8-2.8
		s2.8,1.3,2.8,2.8S16.7,18,15.2,18z M21.6,11.6c-1.5,0-2.8-1.3-2.8-2.8S20.1,6,21.6,6c1.5,0,2.8,1.3,2.8,2.8S23.1,11.6,21.6,11.6z"
		/>
</g>
</svg>
